X: 1730
T: the Man From Newry   #2
R: hornpipe, reel
%S: s:2 b:10(5+5)
B: O'Neill's 1850 #1730
O: J.O'Neill
Z: Bob Safranek, rjs@gsp.org
M: 2/4
L: 1/16
K: G
    D2  |: G2g2 gdBG | c2e2 efge | dBdg [1,3 edcB | ABcA GFED :|[2,4 ecAF | G2B2 G2 :|
|: (dc) |: BGBG BcdB | ecec efge | dBdg [1,3 edcB | ABcA GFED :|[2,4 ecAF | G2B2 G2 :|
